X:1
T:GAME OF THRONES
T:GAME OF THRONES
T:Theme from the HBO Series
T:RAMIN DJAWADI
C:RAMIN DJAWADI
%%score { 1 | 2 }
L:1/8
Q:1/4=170
M:3/4
K:Eb
V:1 treble nm="Piano" snm="Pno."
V:2 bass 
V:1
 G2 C2 EF | G2 C2 EF | G2 C2 EF | G2 C2 EF | G2 C2 =EF | G2 C2 =EF | G2 C2 =EF | G2 C2 =EF | %8
[K:bass] [G,G]6 | C,6 | _E,F, G,4 | C,4 E,F, | D2 G,2 B,C | D2 G,2 B,C | D2 G,2 B,C | D2 G,2 B,2 | %16
 [F,F]6 | B,,6 | E,D, F,4 | B,,6 | C2 F,2 A,B, | C2 F,2 A,B, | C2 F,2 A,B, | C2 F,2 A,2 | %24
[K:treble] [G,CG]6 | C6 | EF G4 | C4 EF | [G,B,D]2 G,2 B,C | [G,B,D]2 G,2 B,C | [G,B,D]2 G,2 B,C | %31
 [G,B,D]2 G,2 B,2 | [F,B,F]6 | B,6 | ED F4 | B,6 | [G,E]D [G,C]2 A,B, | C2 G,2 A,B, | C2 G,2 A,B, | %39
 C2 G,2 C2 | [Gceg]6 | [Gc]6 | [Gce]f g4 | [Gc]4 ef | [GBd]2 G2 Bc | [Dd]2 G2 Bc | [Dd]2 G2 Bc | %47
 [DGBd]2 [DG]2 [DGB]2 | [FBdf]6 | [FB]6 | [FBd]3 e- e2 | [FBd]3 [FB]- [FB]2 | [Gc]2 G2 AB | %53
 [Cc]2 G2 AB | c2 [Gg]2 [Aa][Bb] | [cc']2 [Gg]2 AB | [Cc]6- | [Cc]2 E2 Bc | [B,B]6 | [B,B]2 E2 G2 | %60
 AC- C4- | C4 GA | [CEG]2 C2 EF | [CEG]2 C2 E2 | A,3- z CD | [A,E]2 A,2 DE | E2 A,2 E2 | %67
 [=B,DF]2 G,2 _B,2 | [CG-]2 G,2 A,B, | [CG-]2 G,2 A,B, | [CG-]2 G,2 A,B, | [CG]2 G,2 B,2 | %72
 [cc']6- | [cc']4 Bc | [Bb]6- | [Bb]6 | [A-a]c- c4- | [_Ac]6 | [Gg]6- | [Gg]6 | [A,A]6- | [A,A]6 | %82
 [Ee]6 | [Dd]6 | [CG-]2 G,2 A,B, | [CG-]2 G,2 A,B, | [CG-]2 G,2 A,B, | [CG]2 G,2 B,2 | c'2 g2 ab | %89
 c'2 g2 ab | c'2 g2 ab | c'6- | c'6 |] %93
V:2
 [C,,-G,,-C,]6 | [C,,-G,,-C,]6 | [C,,-G,,-C,]6 | [C,,G,,C,]6 | [C,,-G,,-C,]6 | [C,,-G,,-C,]6 | %6
 [C,,-G,,-C,]6 | [C,,G,,C,]6 | C,,3 C,, C,,C,, | C,,3 C,, C,,C,, | C,,3 C,, C,,C,, | %11
 C,,3 C,, C,,2 | [G,,D,]3 G,, G,,G,, | [G,,D,]3 G,, G,,G,, | [G,,D,]3 G,, G,,G,, | %15
 [G,,D,]2 G,,2 G,,2 | B,,,3 B,,, B,,,B,,, | B,,,3 B,,, B,,,B,,, | B,,,3 B,,, B,,,B,,, | %19
 B,,,3 B,,, B,,,2 | [F,,E,]D, C,4 | [F,,C,]3 F,, F,,F,, | [F,,C,]3 F,, F,,F,, | %23
 [F,,C,]2 F,,2 F,,2 | C,,3 C,, C,,C,, | C,,3 C,, C,,C,, | C,,3 C,, C,,C,, | C,,3 C,, C,,2 | %28
 [G,,D,]3 G,, G,,G,, | [G,,D,]3 G,, G,,G,, | [G,,D,]3 G,, G,,G,, | [G,,D,]2 G,,2 G,,2 | %32
 B,,,3 B,,, B,,,B,,, | B,,,3 B,,, B,,,B,,, | B,,,3 B,,, B,,,B,,, | B,,,3 B,,, B,,,2 | %36
 C,,3 C,, C,,C,, | C,,3 C,, C,,C,, | C,,3 C,, C,,C,, | C,,2 C,,2 C,,2 | [C,,C,]3 C,, C,,C,, | %41
 [C,,C,]3 C,, C,,C,, | [C,,C,]3 C,, C,,C,, | [C,,C,]3 C,, C,,2 | [G,,D,]3 G,, G,,G,, | %45
 [G,,D,]3 G,, G,,G,, | [G,,D,]3 G,, G,,G,, | [G,,D,]2 [G,,D,]2 [G,,D,]2 | [B,,F,]3 B,, B,,B,, | %49
 [B,,F,]3 B,, B,,B,, | [B,,F,]3 B,, B,,B,, | [B,,F,]4 B,,2 | [C,,C,]3 C,, C,,C,, | %53
 [C,,C,]3 C,, C,,C,, | [C,,C,]3 C,, C,,C,, | [C,,C,]2 [C,,C,]2 [C,,C,]2 | A,,3 E, A,E, | %57
 A,,3 E, A,2 | E,,3 B,, E,B,, | E,,2 B,,2 G,2 | F,,3 C, F,C, | F,,3 C, F, z | C,,3 G,, C,G,, | %63
 C,,2 G,,2 C,2 | A,,,3 E,, A,,E,, | A,,,3 E,, A,,2 | F,,3 C, F,C, | G,,2 D,2 G,,2 | %68
 C,,3 G,, C,G,, | C,,3 G,, C,G,, | C,,3 G,, C,G,, | C,,2 G,,2 C,2 | A,,3 E, CE, | A,,3 E, C2 | %74
 E,,3 B,, G,B,, | E,,2 B,,2 G,2 | F,,3 C, A,C, | F,,3 C, A,2 | C,,3 G,, E,G,, | C,,2 G,,2 E,2 | %80
 A,,,3 E,, C,E,, | A,,,3 E,, C,2 | F,,3 C, A,C, | G,,2 D,2 G,,2 | [C,,C,]3 [C,,C,] [C,,C,][C,,C,] | %85
 [C,,C,]3 [C,,C,] [C,,C,][C,,C,] | [C,,C,]3 [C,,C,] [C,,C,][C,,C,] | [C,,C,]2 [C,,C,]2 [C,,C,]2 | %88
 [CG]6- | [CG]6- | [CG]6- | [CG]6- | [CG]6 |] %93

